docs/.gitbook/assets/icon-snowflake-16@dark.svg

<svg width="32" height="32" viewBox="0 0 16 16" fill="none" xmlns="http://www.w3.org/2000/svg">
<rect x="0" y="0" width="16" height="16" fill="#181c1f"/>
<path fill-rule="evenodd" clip-rule="evenodd" d="M8 1C8.41421 1 8.75 1.33579 8.75 1.75V3.29553L9.69253 2.24828C9.96962 1.94039 10.4438 1.91544 10.7517 2.19253C11.0596 2.46962 11.0846 2.94384 10.8075 3.25172L8.75 5.5378L8.75 7.25L10.4622 7.25L12.7483 5.19253C13.0562 4.91544 13.5304 4.94039 13.8075 5.24828C14.0846 5.55616 14.0596 6.03038 13.7517 6.30747L12.7045 7.25H14.25C14.6642 7.25 15 7.58579 15 8C15 8.41421 14.6642 8.75 14.25 8.75H12.7045L13.7517 9.69253C14.0596 9.96962 14.0846 10.4438 13.8075 10.7517C13.5304 11.0596 13.0562 11.0846 12.7483 10.8075L10.4622 8.75L8.75 8.75V10.4622L10.8075 12.7483C11.0846 13.0562 11.0596 13.5304 10.7517 13.8075C10.4438 14.0846 9.96962 14.0596 9.69253 13.7517L8.75 12.7045V14.25C8.75 14.6642 8.41421 15 8 15C7.58579 15 7.25 14.6642 7.25 14.25V12.7045L6.30747 13.7517C6.03038 14.0596 5.55616 14.0846 5.24828 13.8075C4.94039 13.5304 4.91543 13.0562 5.19253 12.7483L7.25 10.4622V8.75H5.5378L3.25172 10.8075C2.94384 11.0846 2.46962 11.0596 2.19253 10.7517C1.91543 10.4438 1.94039 9.96962 2.24828 9.69253L3.29553 8.75H1.75C1.33579 8.75 1 8.41421 1 8C1 7.58579 1.33579 7.25 1.75 7.25H3.29553L2.24828 6.30747C1.94039 6.03038 1.91544 5.55616 2.19253 5.24828C2.46962 4.94039 2.94384 4.91544 3.25172 5.19253L5.5378 7.25H7.25L7.25 5.5378L5.19253 3.25172C4.91544 2.94384 4.94039 2.46962 5.24828 2.19253C5.55616 1.91544 6.03038 1.94039 6.30747 2.24828L7.25 3.29553V1.75C7.25 1.33579 7.58579 1 8 1Z" fill="#fff"/>
</svg>

<svg xmlns="http://www.w3.org/2000/svg" width="32" height="32" fill="none" viewBox="0 0 16 16"><path fill="#181c1f" d="M0 0h16v16H0z"/><path fill="#fff" fill-rule="evenodd" d="M8 1a.75.75 0 0 1 .75.75v1.546l.943-1.048a.75.75 0 1 1 1.114 1.004L8.75 5.538V7.25h1.712l2.286-2.057a.75.75 0 1 1 1.004 1.114l-1.048.943h1.546a.75.75 0 0 1 0 1.5h-1.546l1.048.943a.75.75 0 1 1-1.004 1.114L10.462 8.75H8.75v1.712l2.057 2.286a.75.75 0 1 1-1.114 1.004l-.943-1.048v1.546a.75.75 0 0 1-1.5 0v-1.546l-.943 1.048a.75.75 0 1 1-1.114-1.004l2.057-2.286V8.75H5.538l-2.286 2.057a.75.75 0 0 1-1.004-1.114l1.048-.943H1.75a.75.75 0 0 1 0-1.5h1.546l-1.048-.943a.75.75 0 1 1 1.004-1.114L5.538 7.25H7.25V5.538L5.193 3.252a.75.75 0 1 1 1.114-1.004l.943 1.048V1.75A.75.75 0 0 1 8 1" clip-rule="evenodd"/></svg>
